icons/cloudy-sun.svg

<svg width="24" height="24" viewBox="0 0 24 24" fill="none" xmlns="http://www.w3.org/2000/svg">
<path d="M8.85389 14.3082C8.85389 12.9846 9.23939 11.6908 9.96165 10.5903C10.6839 9.48983 11.7105 8.63211 12.9115 8.12561C14.1126 7.61911 15.4342 7.48659 16.7093 7.7448C17.9843 8.00301 19.1555 8.64036 20.0748 9.57624C20.9941 10.5121 21.6201 11.7045 21.8737 13.0026C22.1273 14.3007 21.9971 15.6463 21.4997 16.8691C21.0022 18.0919 20.1597 19.137 19.0787 19.8723C17.9978 20.6076 16.727 21.0001 15.4269 21.0001H7.69394C7.0764 20.9996 6.46638 20.8622 5.90628 20.5974C5.34618 20.3326 4.84943 19.9468 4.45056 19.4668C4.05169 18.9869 3.76027 18.4242 3.59655 17.818C3.43283 17.2118 3.40074 16.5766 3.50251 15.9564C3.60428 15.3363 3.83746 14.7462 4.18586 14.2271C4.53426 13.708 4.98951 13.2724 5.51997 12.9505C6.05044 12.6286 6.64339 12.4282 7.25762 12.3632C7.87184 12.2981 8.49261 12.3701 9.07678 12.574" stroke="#1E293B" stroke-width="2" stroke-linecap="round" stroke-linejoin="round"/>
<path d="M5.33964 13.0635C4.90431 12.5498 4.58279 11.9466 4.39693 11.295C4.21108 10.6434 4.16526 9.95868 4.26259 9.28745C4.35993 8.61622 4.59813 7.97421 4.96099 7.40509C5.32385 6.83597 5.80286 6.3531 6.36544 5.98933C6.92801 5.62556 7.56094 5.38942 8.22118 5.29698C8.88142 5.20454 9.55347 5.25797 10.1916 5.45363C10.8297 5.64929 11.419 5.98259 11.9193 6.43086C12.4196 6.87913 12.8192 7.43184 13.0909 8.05141" stroke="#1E293B" stroke-width="2" stroke-linecap="round" stroke-linejoin="round"/>
<path d="M11.5139 6.10904L12.8445 4.17432" stroke="#1E293B" stroke-width="2" stroke-linecap="round" stroke-linejoin="round"/>
<path d="M8.0481 5.32598L7.64526 3" stroke="#1E293B" stroke-width="2" stroke-linecap="round" stroke-linejoin="round"/>
<path d="M5.05369 7.2678L3.15334 5.91309" stroke="#1E293B" stroke-width="2" stroke-linecap="round" stroke-linejoin="round"/>
<path d="M4.28466 10.7959L2 11.206" stroke="#1E293B" stroke-width="2" stroke-linecap="round" stroke-linejoin="round"/>
</svg>

<svg
  width="24"
  height="24"
  viewBox="0 0 24 24"
  xmlns="http://www.w3.org/2000/svg"
  fill="none"
  stroke="currentColor"
  stroke-width="2"
  stroke-linecap="round"
  stroke-linejoin="round"
>
  <path d="M8.854 14.308c0-1.323.385-2.617 1.108-3.718a6.6 6.6 0 0 1 2.95-2.464 6.465 6.465 0 0 1 3.797-.381 6.538 6.538 0 0 1 3.366 1.831 6.73 6.73 0 0 1 1.799 3.427 6.806 6.806 0 0 1-.374 3.866 6.667 6.667 0 0 1-2.421 3.003A6.49 6.49 0 0 1 15.427 21H7.694a4.19 4.19 0 0 1-1.788-.403 4.263 4.263 0 0 1-1.455-1.13 4.356 4.356 0 0 1-.854-1.649 4.406 4.406 0 0 1 .589-3.59c.348-.52.804-.956 1.334-1.277a4.181 4.181 0 0 1 3.557-.377" />
  <path d="M5.34 13.063a4.75 4.75 0 0 1-.943-1.768 4.807 4.807 0 0 1 .564-3.89A4.682 4.682 0 0 1 6.365 5.99a4.561 4.561 0 0 1 3.826-.536 4.619 4.619 0 0 1 1.728.978c.5.448.9 1 1.172 1.62" />
  <path d="M11.514 6.109l1.33-1.935" />
  <path d="M8.048 5.326L7.645 3" />
  <path d="M5.054 7.268l-1.9-1.355" />
  <path d="M4.285 10.796L2 11.206" />
</svg>
